X:29
T:Bunch of Keys
Z: id:dc-reel-29
M:C
L:1/8
K:G Mixolydian
E|DGG^F G2GA|BGdG eGdG|DFFE F2FG|AFcF dFcF|!
DGG^F G2GA|BAGA Bcde|fgfd cBAc|BGA^F DGG:|!
B|dgg^f g3a|bgag bga^f|d^cde ^fefg|a^fgf afge|!
dgg^f g3a|bgag ^fdde|fgfd cBAc|BGA^F DGG:|!
A|BGG2 BGdG|BGG2 Bdgd|AFF2 AFcF|AFF2 ABcA|!
BGG2 BGdG|BGGA Bcde|fage fdcA|GBA^F G3:|!

